static/assets/template/assets/img/icons/essential/detailed/CD.svg

<svg height="141" viewBox="0 0 150 141" width="150" xmlns="http://www.w3.org/2000/svg"><g fill="none" fill-rule="evenodd" transform="translate(2 2)"><path d="m145.5 59.1v40.7c0 3.2-2.6 5.8-5.8 5.8h-133.6c-3.2 0-5.8-2.6-5.8-5.8v-40.7c0-1.2.4-2.3 1-3.3h-.1l.9-1.4 29.8-49.2c2-2.9 5.3-4.7 8.8-4.7h66.7c3.7 0 7.1 1.9 9.1 5.1l27.1 48.9.6 1.1c.8.9 1.3 2.2 1.3 3.5z" fill-rule="nonzero"/><path d="m28.5 105.6h-19.1c-3.1 0-5.6-2.3-5.6-5.2v-37.1c0-2.9 2.5-5.2 5.6-5.2h130.5c3.1 0 5.6 2.3 5.6 5.2v37.1c0 2.9-2.5 5.2-5.6 5.2h-19.1" fill="#c1ddfe" fill-rule="nonzero"/><path d="m143.6 54.4h-135.9l28.7-46.5c1.9-2.8 5.1-4.5 8.5-4.5h64.1c3.6 0 6.8 1.8 8.7 4.8z" fill-rule="nonzero"/><path d="m105.5 79.9c9.1 6 14.8 14.5 14.8 23.9 0 18.2-21.2 33-47.3 33s-47.3-14.8-47.3-33c0-9.1 5.3-17.4 13.9-23.3" fill-rule="nonzero"/><g stroke-linecap="round" stroke-linejoin="round" stroke-width="3.2"><path d="m25.7 105.6c0-.6-.1-1.2-.1-1.8 0-9.1 5.3-17.4 13.9-23.3"/><path d="m105.5 79.9c9.1 6 14.8 14.5 14.8 23.9 0 18.2-21.2 33-47.3 33-21.2 0-39.1-9.7-45.1-23.1"/><path d="m76.1 108.3c-1 .3-2.1.4-3.2.4-5.3 0-9.5-3.2-9.5-7.2s4.3-7.2 9.5-7.2 9.5 3.2 9.5 7.2c0 .8-.2 1.6-.5 2.3"/><path d="m20.1 79.9h105.6"/><path d="m25.7 105.6h-19.6c-3.2 0-5.8-2.6-5.8-5.8v-40.7c0-3.2 2.6-5.8 5.8-5.8h133.6c3.2 0 5.8 2.6 5.8 5.8v40.7c0 3.2-2.6 5.8-5.8 5.8h-19.6"/><path d="m64 .5h43.5c3.7 0 7.1 1.9 9 5.1l28 50.5"/><path d="m49.1.5h1.2"/><path d="m1.3 55.8 30.7-50.6c2-2.9 5.3-4.7 8.8-4.7h.8"/><path d="m124.8 66.7h.4"/></g></g></svg>

<?xml version="1.0" encoding="UTF-8"?>
<svg width="150px" height="141px" viewBox="0 0 150 141" version="1.1" xmlns="http://www.w3.org/2000/svg" xmlns:xlink="http://www.w3.org/1999/xlink">
    <!-- Generator: Sketch 51.2 (57519) - http://www.bohemiancoding.com/sketch -->
    <title>CD</title>
    <desc>Created with Sketch.</desc>
    <defs></defs>
    <g id="Page-1" stroke="none" stroke-width="1" fill="none" fill-rule="evenodd">
        <g id="CD" transform="translate(2.000000, 2.000000)">
            <path d="M145.5,59.1 L145.5,99.8 C145.5,103 142.9,105.6 139.7,105.6 L6.1,105.6 C2.9,105.6 0.3,103 0.3,99.8 L0.3,59.1 C0.3,57.9 0.7,56.8 1.3,55.8 L1.2,55.8 L2.1,54.4 L31.9,5.2 C33.9,2.3 37.2,0.5 40.7,0.5 L107.4,0.5 C111.1,0.5 114.5,2.4 116.5,5.6 L143.6,54.5 L144.2,55.6 C145,56.5 145.5,57.8 145.5,59.1 Z" id="Shape" class="fill-neutral" fill-rule="nonzero"></path>
            <path d="M28.5,105.6 L9.4,105.6 C6.3,105.6 3.8,103.3 3.8,100.4 L3.8,63.3 C3.8,60.4 6.3,58.1 9.4,58.1 L139.9,58.1 C143,58.1 145.5,60.4 145.5,63.3 L145.5,100.4 C145.5,103.3 143,105.6 139.9,105.6 L120.8,105.6" id="Shape" fill="#C1DDFE" fill-rule="nonzero"></path>
            <path d="M143.6,54.4 L7.7,54.4 L36.4,7.9 C38.3,5.1 41.5,3.4 44.9,3.4 L109,3.4 C112.6,3.4 115.8,5.2 117.7,8.2 L143.6,54.4 Z" id="Shape" class="fill-primary-100" fill-rule="nonzero"></path>
            <path d="M105.5,79.9 C114.6,85.9 120.3,94.4 120.3,103.8 C120.3,122 99.1,136.8 73,136.8 C46.9,136.8 25.7,122 25.7,103.8 C25.7,94.7 31,86.4 39.6,80.5" id="Shape" class="fill-neutral" fill-rule="nonzero"></path>
            <path d="M25.7,105.6 C25.7,105 25.6,104.4 25.6,103.8 C25.6,94.7 30.9,86.4 39.5,80.5" id="Shape" class="stroke-primary" stroke-width="3.2" stroke-linecap="round" stroke-linejoin="round"></path>
            <path d="M105.5,79.9 C114.6,85.9 120.3,94.4 120.3,103.8 C120.3,122 99.1,136.8 73,136.8 C51.8,136.8 33.9,127.1 27.9,113.7" id="Shape" class="stroke-primary" stroke-width="3.2" stroke-linecap="round" stroke-linejoin="round"></path>
            <path d="M76.1,108.3 C75.1,108.6 74,108.7 72.9,108.7 C67.6,108.7 63.4,105.5 63.4,101.5 C63.4,97.5 67.7,94.3 72.9,94.3 C78.1,94.3 82.4,97.5 82.4,101.5 C82.4,102.3 82.2,103.1 81.9,103.8" id="Shape" class="stroke-primary" stroke-width="3.2" stroke-linecap="round" stroke-linejoin="round"></path>
            <path d="M20.1,79.9 L125.7,79.9" id="Shape" class="stroke-primary" stroke-width="3.2" stroke-linecap="round" stroke-linejoin="round"></path>
            <path d="M25.7,105.6 L6.1,105.6 C2.9,105.6 0.3,103 0.3,99.8 L0.3,59.1 C0.3,55.9 2.9,53.3 6.1,53.3 L139.7,53.3 C142.9,53.3 145.5,55.9 145.5,59.1 L145.5,99.8 C145.5,103 142.9,105.6 139.7,105.6 L120.1,105.6" id="Shape" class="stroke-primary" stroke-width="3.2" stroke-linecap="round" stroke-linejoin="round"></path>
            <path d="M64,0.5 L107.5,0.5 C111.2,0.5 114.6,2.4 116.5,5.6 L144.5,56.1" id="Shape" class="stroke-primary" stroke-width="3.2" stroke-linecap="round" stroke-linejoin="round"></path>
            <path d="M49.1,0.5 L50.3,0.5" id="Shape" class="stroke-primary" stroke-width="3.2" stroke-linecap="round" stroke-linejoin="round"></path>
            <path d="M1.3,55.8 L32,5.2 C34,2.3 37.3,0.5 40.8,0.5 L41.6,0.5" id="Shape" class="stroke-primary" stroke-width="3.2" stroke-linecap="round" stroke-linejoin="round"></path>
            <path d="M124.8,66.7 L125.2,66.7" id="Shape" class="stroke-primary" stroke-width="3.2" stroke-linecap="round" stroke-linejoin="round"></path>
        </g>
    </g>
</svg>
